flaticon/outdoor/lamp-1.svg

<svg xmlns="http://www.w3.org/2000/svg" width="32" height="32" viewBox="0 0 24 24">
    <path d="M 19.027344 21.199219 L 18.425781 21.199219 C 18.425781 20.769531 18.34375 20.371094 18.195312 20.007812 L 19.226562 18.976562 L 19.742188 19.496094 C 19.820312 19.574219 19.925781 19.613281 20.027344 19.613281 C 20.128906 19.613281 20.230469 19.574219 20.308594 19.496094 C 20.464844 19.339844 20.464844 19.085938 20.308594 18.929688 L 18.710938 17.328125 C 18.554688 17.171875 18.300781 17.171875 18.144531 17.328125 C 17.988281 17.484375 17.988281 17.738281 18.144531 17.894531 L 18.660156 18.410156 L 17.78125 19.292969 C 17.375 18.78125 16.800781 18.402344 16.097656 18.191406 C 17.472656 16.554688 18.425781 13.742188 18.425781 11.183594 C 18.425781 9.226562 17.808594 6.566406 16.617188 4.8125 L 17.628906 4.8125 C 17.847656 4.8125 18.027344 4.632812 18.027344 4.410156 C 18.027344 4.191406 17.847656 4.011719 17.628906 4.011719 L 16.425781 4.011719 L 16.425781 4 C 16.425781 2.898438 15.53125 2 14.425781 2 L 14.390625 2 C 14.199219 0.867188 13.214844 0 12.027344 0 L 11.628906 0 C 10.441406 0 9.453125 0.867188 9.261719 2 L 9.226562 2 C 8.125 2 7.226562 2.898438 7.226562 4 L 7.226562 4.011719 L 5.628906 4.011719 C 5.40625 4.011719 5.226562 4.191406 5.226562 4.410156 C 5.226562 4.632812 5.40625 4.8125 5.628906 4.8125 L 7.039062 4.8125 C 6.566406 5.507812 6.1875 6.339844 5.898438 7.21875 C 5.878906 7.238281 5.859375 7.253906 5.84375 7.277344 C 3.960938 10.453125 2.789062 14.101562 4.191406 14.933594 C 4.363281 15.035156 4.550781 15.085938 4.757812 15.085938 C 5.070312 15.085938 5.421875 14.964844 5.789062 14.761719 C 6.203125 16.097656 6.820312 17.3125 7.554688 18.191406 C 6.144531 18.609375 5.230469 19.730469 5.226562 21.199219 L 5.027344 21.199219 C 4.253906 21.199219 3.628906 21.828125 3.628906 22.601562 C 3.628906 23.371094 4.253906 24 5.027344 24 L 19.027344 24 C 19.800781 24 20.425781 23.371094 20.425781 22.601562 C 20.425781 21.828125 19.796875 21.199219 19.027344 21.199219 Z M 11.625 0.800781 L 12.027344 0.800781 C 12.769531 0.800781 13.398438 1.3125 13.578125 2 L 10.078125 2 C 10.253906 1.3125 10.882812 0.800781 11.625 0.800781 Z M 9.226562 2.800781 L 14.425781 2.800781 C 15.089844 2.800781 15.625 3.339844 15.625 4 L 12.367188 4 C 12.378906 3.867188 12.390625 3.730469 12.390625 3.609375 C 12.390625 3.390625 12.214844 3.210938 11.992188 3.210938 C 11.769531 3.210938 11.59375 3.390625 11.59375 3.613281 C 11.59375 3.730469 11.582031 3.863281 11.570312 4 L 8.027344 4 C 8.027344 3.339844 8.566406 2.800781 9.226562 2.800781 Z M 11.425781 4.8125 C 11.121094 6.097656 10.40625 7.769531 9.433594 9.410156 C 8.320312 11.28125 7.179688 12.632812 6.269531 13.4375 C 6.113281 12.691406 6.027344 11.925781 6.027344 11.179688 C 6.027344 8.839844 6.863281 6.203125 8.035156 4.8125 Z M 4.601562 14.246094 C 4.15625 13.984375 4.304688 12.371094 5.285156 10.109375 C 5.246094 10.484375 5.226562 10.84375 5.226562 11.179688 C 5.226562 12.101562 5.351562 13.054688 5.574219 13.976562 C 5.128906 14.261719 4.785156 14.355469 4.601562 14.246094 Z M 8.46875 18.011719 C 7.617188 17.164062 6.910156 15.804688 6.480469 14.296875 C 7.691406 13.347656 9.03125 11.652344 10.121094 9.816406 C 11.1875 8.019531 11.945312 6.214844 12.246094 4.8125 L 15.617188 4.8125 C 16.789062 6.203125 17.628906 8.839844 17.628906 11.179688 C 17.628906 13.761719 16.609375 16.597656 15.1875 18.011719 L 13.628906 18.011719 L 13.628906 17.410156 C 13.628906 16.851562 13.363281 16.355469 12.960938 16.023438 C 13.171875 15.863281 13.351562 15.652344 13.496094 15.394531 C 14.109375 14.3125 13.980469 12.636719 13.5 11.835938 L 11.769531 8.300781 L 10.054688 11.804688 C 9.554688 12.640625 9.421875 14.320312 10.03125 15.394531 C 10.191406 15.679688 10.398438 15.90625 10.636719 16.070312 C 10.265625 16.402344 10.027344 16.875 10.027344 17.410156 L 10.027344 18.011719 Z M 12.679688 15.167969 C 12.742188 14.761719 12.671875 14.316406 12.527344 14.078125 L 11.863281 12.722656 L 11.203125 14.078125 C 11.027344 14.367188 10.953125 14.964844 11.105469 15.417969 C 10.957031 15.320312 10.828125 15.183594 10.726562 15.003906 C 10.242188 14.148438 10.414062 12.761719 10.757812 12.1875 L 11.769531 10.121094 L 12.796875 12.214844 C 13.121094 12.753906 13.289062 14.140625 12.800781 15 C 12.761719 15.066406 12.71875 15.117188 12.679688 15.167969 Z M 10.828125 17.410156 C 10.828125 16.859375 11.277344 16.410156 11.828125 16.410156 C 12.378906 16.410156 12.828125 16.859375 12.828125 17.410156 L 12.828125 18.011719 L 10.828125 18.011719 Z M 8.839844 18.8125 L 14.816406 18.8125 C 16.210938 18.8125 17.621094 19.550781 17.625 21.199219 L 6.027344 21.199219 C 6.03125 19.550781 7.441406 18.8125 8.839844 18.8125 Z M 19.027344 23.199219 L 5.027344 23.199219 C 4.695312 23.199219 4.425781 22.929688 4.425781 22.601562 C 4.425781 22.269531 4.695312 22 5.027344 22 L 19.027344 22 C 19.359375 22 19.625 22.269531 19.625 22.601562 C 19.625 22.929688 19.359375 23.199219 19.027344 23.199219 Z M 19.027344 23.199219"/>
</svg>

<svg xmlns="http://www.w3.org/2000/svg" width="32" height="32" viewBox="0 0 24 24">
    <path d="M19.027 21.2h-.601c0-.43-.082-.829-.23-1.192l1.03-1.031.516.52a.405.405 0 0 0 .285.116.4.4 0 0 0 .281-.684l-1.597-1.6a.4.4 0 0 0-.566.566l.515.515-.879.883c-.406-.512-.98-.89-1.683-1.102 1.375-1.636 2.328-4.449 2.328-7.007 0-1.957-.617-4.618-1.809-6.371h1.012a.401.401 0 0 0 0-.801h-1.203V4c0-1.102-.895-2-2-2h-.035a2.401 2.401 0 0 0-2.364-2h-.398a2.405 2.405 0 0 0-2.367 2h-.035c-1.102 0-2 .898-2 2v.012H5.629a.401.401 0 1 0 0 .8h1.41c-.473.696-.851 1.528-1.14 2.407-.02.02-.04.035-.055.058-1.883 3.176-3.055 6.825-1.653 7.657.172.101.36.152.567.152.312 0 .664-.121 1.031-.324.414 1.336 1.031 2.55 1.766 3.43-1.41.417-2.325 1.538-2.328 3.007h-.2a1.4 1.4 0 0 0 0 2.801h14a1.4 1.4 0 0 0 0-2.8zM11.625.8h.402c.743 0 1.371.512 1.551 1.2h-3.5c.176-.688.805-1.2 1.547-1.2zm-2.398 2h5.199c.664 0 1.199.54 1.199 1.2h-3.258c.012-.133.024-.27.024-.39a.398.398 0 1 0-.797.003c0 .117-.012.25-.024.387H8.027c0-.66.54-1.2 1.2-1.2zm2.199 2.013c-.305 1.285-1.02 2.957-1.992 4.597-1.114 1.871-2.254 3.223-3.164 4.027a11.092 11.092 0 0 1-.243-2.257c0-2.34.836-4.977 2.008-6.367zm-6.824 9.433c-.446-.262-.297-1.875.683-4.137-.039.375-.058.735-.058 1.07 0 .923.125 1.876.347 2.798-.445.285-.789.378-.972.27zm3.867 3.766c-.852-.848-1.559-2.207-1.989-3.715 1.211-.95 2.551-2.645 3.641-4.48 1.066-1.797 1.824-3.602 2.125-5.005h3.371C16.79 6.204 17.63 8.84 17.63 11.18c0 2.582-1.02 5.418-2.442 6.832H13.63v-.602a1.8 1.8 0 0 0-.668-1.387c.21-.16.39-.37.535-.628.613-1.082.484-2.758.004-3.56l-1.73-3.534-1.715 3.504c-.5.836-.633 2.515-.024 3.59.16.285.367.511.606.675a1.79 1.79 0 0 0-.61 1.34v.602zm4.21-2.844c.063-.406-.007-.852-.152-1.09l-.664-1.355-.66 1.355c-.176.29-.25.887-.098 1.34a1.182 1.182 0 0 1-.378-.414c-.485-.856-.313-2.242.03-2.816l1.013-2.067 1.027 2.094c.324.539.492 1.926.004 2.785-.04.066-.082.117-.121.168zm-1.85 2.242c0-.55.448-1 1-1 .55 0 1 .45 1 1v.602h-2zm-1.99 1.402h5.977c1.395 0 2.805.739 2.809 2.387H6.027c.004-1.648 1.414-2.387 2.813-2.387zM19.028 23.2h-14a.601.601 0 0 1-.601-.597c0-.332.27-.602.601-.602h14c.332 0 .598.27.598.602a.598.598 0 0 1-.598.597zm0 0"/>
</svg>
